X: 32961
T: Pressed For Time
R: reel
M: 4/4
K: Dmixolydian
|:DEdD EcDE|BDEB DEBE|DE E2 A2GE|DE E2 A2GE|
DEdD EcDE|BDEB DEBE|GE E2 AEGE|E2BE B4:|
|:DEAE GEDE|E2AE GE E2|GA A2 BA A2|BccB e3c|
BE E2 FEBE|E2B2 A2GE|DE E2 AEGE|1 E2B2 A2GE:|2 E2B2 D2 (3FGA||
|:d3c dBBc|d3e dBBd|Bc2d cBAF|AFAB c2AF|
BE E2 DEBE|E2B2 A2GE|DE E2 AEGE|E2B2 D2 (3FGA:|
|:d3c dBBc|d3e dBBd|Bc2d cBAF|AFAB c2AF|
[1 BeeB e2Be|eBe2 Bcdc|BEeB e3c|dcAE (3FGA Bc:|
[2 BEE2 DEBE|E2B2 A2GE|DEE2 AEGE|E2BE B4||

